src/icons/technologies/Authjs.svg

<svg xmlns="http://www.w3.org/2000/svg" width="50" height="50" viewBox="0 0 256 256">
<rect width="256" height="256" rx="60" fill="#F4F2ED"/>
<path fill-rule="evenodd" clip-rule="evenodd" d="M220.578 54.1784L62.618 174.353C43.2207 139.183 36.502 96.7557 36 71.3094V55.7343C36 53.4688 38.4578 52.1475 39.6869 51.7697C65.6844 43.9352 118.474 28.0389 121.65 27.1327C124.827 26.2265 127.511 26 128.458 26H128.543C129.489 26 132.173 26.2265 135.35 27.1327C138.526 28.0389 191.316 43.9352 217.314 51.7697C218.228 52.0507 219.822 52.8538 220.578 54.1784Z" fill="url(#gradient-1)"/>
<path fill-rule="evenodd" clip-rule="evenodd" d="M62.6172 174.549L220.577 54.3752C220.838 54.8323 221 55.3505 221 55.9311V71.5062C220.149 114.645 201.43 206.585 133.364 229.24C132.419 229.617 130.188 230.373 128.826 230.373H128.173C126.812 230.373 124.58 229.617 123.635 229.24C95.719 219.948 76.1034 199.003 62.6172 174.549Z" fill="url(#gradient-2)"/>
<path d="M134.831 27.135C131.653 26.227 128.967 26 128.021 26L127.737 230.583H128.305C129.667 230.583 131.899 229.827 132.845 229.448C200.945 206.748 219.672 114.624 220.523 71.3999V55.7937C220.523 53.5237 218.064 52.1995 216.834 51.8212C190.824 43.9708 138.009 28.043 134.831 27.135Z" fill="url(#gradient-3)" fill-opacity="0.21"/>
<path d="M128.786 169.01C152.136 169.01 171.064 150.208 171.064 127.015C171.064 103.822 152.136 85.0198 128.786 85.0198C105.436 85.0198 86.507 103.822 86.507 127.015C86.507 150.208 105.436 169.01 128.786 169.01Z" fill="#E3E2FA"/>
<path fill-rule="evenodd" clip-rule="evenodd" d="M121.125 136.095C117.909 136.379 109.775 134.96 105.802 131.555C101.537 127.898 99.2761 123.043 99.2761 115.948C99.2761 107.148 107.221 97.7886 118.287 98.0723C128.798 98.3417 135.887 104.267 137.299 113.678C138.036 118.59 137.285 120.951 136.701 122.784C136.611 123.07 136.524 123.342 136.448 123.61C136.164 124.556 135.767 126.618 136.448 127.299C137.128 127.98 147.514 137.987 152.621 142.904C153.094 143.472 154.04 144.891 154.04 146.026V151.417C154.04 152.268 153.813 152.552 152.905 152.552H141.555C140.893 152.458 139.568 151.815 139.568 149.999C139.568 148.063 139.362 147.778 138.949 147.207C138.878 147.109 138.801 147.002 138.717 146.877C138.15 146.026 137.015 146.026 135.88 146.026C134.745 146.026 133.894 145.742 133.327 145.175C132.759 144.607 132.759 143.756 133.043 142.621C133.327 141.486 133.043 140.351 132.475 140.067C132.385 140.022 132.28 139.963 132.163 139.895C131.54 139.542 130.547 138.977 129.354 139.216C127.935 139.5 125.948 139.216 124.814 138.081C123.679 136.946 122.26 136.029 121.125 136.095ZM113.463 114.53C115.814 114.53 117.72 112.625 117.72 110.274C117.72 107.923 115.814 106.018 113.463 106.018C111.113 106.018 109.207 107.923 109.207 110.274C109.207 112.625 111.113 114.53 113.463 114.53Z" fill="url(#gradient-4)"/>
<linearGradient id="gradient-1" x1="53.3087" y1="111.409" x2="122.26" y2="39.3363" gradientUnits="userSpaceOnUse">
<stop stop-color="#45FFC8"/>
<stop offset="1" stop-color="#1DBBF1"/>
</linearGradient>
<linearGradient id="gradient-2" x1="101.261" y1="153.12" x2="186.954" y2="194.832" gradientUnits="userSpaceOnUse">
<stop stop-color="#D14AE8"/>
<stop offset="0.552228" stop-color="#B628E3"/>
<stop offset="1" stop-color="#8315FD"/>
</linearGradient>
<linearGradient id="gradient-3" x1="173.902" y1="45.295" x2="173.902" y2="187.454" gradientUnits="userSpaceOnUse">
<stop stop-color="#20ABF5"/>
<stop offset="0.398093" stop-color="#2A8CC3"/>
<stop offset="1" stop-color="#A104DC"/>
</linearGradient>
<linearGradient id="gradient-4" x1="115.734" y1="113.962" x2="150.351" y2="148.864" gradientUnits="userSpaceOnUse">
<stop stop-color="#FE5B01"/>
<stop offset="1" stop-color="#FFB200"/>
</linearGradient>
</svg>

<?xml version="1.0" encoding="UTF-8"?>
<svg width="50" height="50" version="1.1" viewBox="0 0 256 256" xmlns="http://www.w3.org/2000/svg">
 <path d="m220.58 54.178-157.96 120.17c-19.397-35.17-26.116-77.597-26.618-103.04v-15.575c0-2.2655 2.4578-3.5868 3.6869-3.9646 25.998-7.8345 78.787-23.731 81.963-24.637 3.177-0.9062 5.861-1.1327 6.808-1.1327h0.085c0.946 0 3.63 0.2265 6.807 1.1327 3.176 0.9062 55.966 16.802 81.964 24.637 0.914 0.281 2.508 1.0841 3.264 2.4087z" clip-rule="evenodd" fill="url(#gradient-1)" fill-rule="evenodd"/>
 <path d="m62.617 174.55 157.96-120.17c0.261 0.4571 0.423 0.9753 0.423 1.5559v15.575c-0.851 43.139-19.57 135.08-87.636 157.73-0.945 0.377-3.176 1.133-4.538 1.133h-0.653c-1.361 0-3.593-0.756-4.538-1.133-27.916-9.292-47.532-30.237-61.018-54.691z" clip-rule="evenodd" fill="url(#gradient-2)" fill-rule="evenodd"/>
 <path d="m134.83 27.135c-3.178-0.908-5.864-1.135-6.81-1.135l-0.284 204.58h0.568c1.362 0 3.594-0.756 4.54-1.135 68.1-22.7 86.827-114.82 87.678-158.05v-15.606c0-2.27-2.459-3.5942-3.689-3.9725-26.01-7.8504-78.825-23.778-82.003-24.686z" fill="url(#gradient-3)" fill-opacity=".21"/>
 <path d="m128.79 169.01c23.35 0 42.278-18.802 42.278-41.995s-18.928-41.995-42.278-41.995-42.279 18.802-42.279 41.995 18.929 41.995 42.279 41.995z" fill="#E3E2FA"/>
 <path d="m121.12 136.1c-3.216 0.284-11.35-1.135-15.323-4.54-4.265-3.657-6.5259-8.512-6.5259-15.607 0-8.8 7.9449-18.159 19.011-17.876 10.511 0.2694 17.6 6.1947 19.012 15.606 0.737 4.912-0.014 7.273-0.598 9.106-0.09 0.286-0.177 0.558-0.253 0.826-0.284 0.946-0.681 3.008 0 3.689 0.68 0.681 11.066 10.688 16.173 15.605 0.473 0.568 1.419 1.987 1.419 3.122v5.391c0 0.851-0.227 1.135-1.135 1.135h-11.35c-0.662-0.094-1.987-0.737-1.987-2.553 0-1.936-0.206-2.221-0.619-2.792-0.071-0.098-0.148-0.205-0.232-0.33-0.567-0.851-1.702-0.851-2.837-0.851s-1.986-0.284-2.553-0.851c-0.568-0.568-0.568-1.419-0.284-2.554s0-2.27-0.568-2.554c-0.09-0.045-0.195-0.104-0.312-0.172-0.623-0.353-1.616-0.918-2.809-0.679-1.419 0.284-3.406 0-4.54-1.135-1.135-1.135-2.554-2.052-3.689-1.986zm-7.662-21.565c2.351 0 4.257-1.905 4.257-4.256s-1.906-4.256-4.257-4.256c-2.35 0-4.256 1.905-4.256 4.256s1.906 4.256 4.256 4.256z" clip-rule="evenodd" fill="url(#gradient-4)" fill-rule="evenodd"/>
 <linearGradient id="gradient-1" x1="53.309" x2="122.26" y1="111.41" y2="39.336" gradientUnits="userSpaceOnUse">
  <stop stop-color="#45FFC8" offset="0"/>
  <stop stop-color="#1DBBF1" offset="1"/>
 </linearGradient>
 <linearGradient id="gradient-2" x1="101.26" x2="186.95" y1="153.12" y2="194.83" gradientUnits="userSpaceOnUse">
  <stop stop-color="#D14AE8" offset="0"/>
  <stop stop-color="#B628E3" offset=".55223"/>
  <stop stop-color="#8315FD" offset="1"/>
 </linearGradient>
 <linearGradient id="gradient-3" x1="173.9" x2="173.9" y1="45.295" y2="187.45" gradientUnits="userSpaceOnUse">
  <stop stop-color="#20ABF5" offset="0"/>
  <stop stop-color="#2A8CC3" offset=".39809"/>
  <stop stop-color="#A104DC" offset="1"/>
 </linearGradient>
 <linearGradient id="gradient-4" x1="115.73" x2="150.35" y1="113.96" y2="148.86" gradientUnits="userSpaceOnUse">
  <stop stop-color="#FE5B01" offset="0"/>
  <stop stop-color="#FFB200" offset="1"/>
 </linearGradient>
</svg>
